images/icon/dev_copy_forwarding.svg

<svg height="14" viewBox="0 0 14 14" width="14" xmlns="http://www.w3.org/2000/svg"><g fill="none" fill-rule="evenodd"><path d="m10.6958054 8.40570246 3.2971946 3.13723174.005.46-1.392 1.392-.459-.004-3.23084835-3.39521157c.05431678-.15517917.08384835-.32200217.08384835-.49572263v-.5h.5c.48818027 0 .9218917-.23320882 1.1958054-.59429754zm-4.27004889-4.40022814-.16475651.16745988c.102.106.18.182.232.232l3.46484985 3.29631032c-.07743851.17592551-.25329994.29875548-.45784985.29875548h-1.5v1.035l-2.89-3.036.89.001v-1.5c0-.25091455.18482362-.45866124.42575651-.49452568zm-1.19575651-2.82854012c.725-.724 2.135-.771 2.86-.046l1.201 1.201-.037.14c-.615-.158-1.437.144-1.917.626l.106-.0989342-.943.001-.14446001.00686658c-.76065191.07268474-1.35553999.7134373-1.35553999 1.49313342v.5h-.5c-.82842712 0-1.5.67157288-1.5 1.5v1.914l-.436.0009342-2.564-2.564v-.464l.739-.74.232-.232.511.511 1.083-1.083.237-.238c-.118-.116-.195-.194-.232-.232l-.045-.047.005-.47.928-.928.47-.005.047.045c.045.042.123.12.233.232l.237-.237z" fill="#59a869" fill-rule="nonzero"/><g transform="translate(4 4)"><path d="m2.5 0h3c.27614237 0 .5.22385763.5.5v3c0 .27614237-.22385763.5-.5.5h-3c-.27614237 0-.5-.22385763-.5-.5v-3c0-.27614237.22385763-.5.5-.5z" fill="#59a869"/><rect fill="#92d7a0" height="4" rx=".5" width="4" y="2"/></g><path d="m6.5 11c.82842712 0 1.5.6715729 1.5 1.5s-.67157288 1.5-1.5 1.5c-.6528467 0-1.20828193-.4170681-1.41439849-.999297h-2.17120302c-.20611656.5822289-.76155179.999297-1.41439849.999297-.82842712 0-1.5-.6715729-1.5-1.5s.67157288-1.5 1.5-1.5c.65321869 0 1.20891488.4175435 1.41475048 1.0002925h2.17049904c.2058356-.582749.76153179-1.0002925 1.41475048-1.0002925zm-5 1c-.27614237 0-.5.2238576-.5.5s.22385763.5.5.5.5-.2238576.5-.5-.22385763-.5-.5-.5zm5 0c-.27614237 0-.5.2238576-.5.5s.22385763.5.5.5.5-.2238576.5-.5-.22385763-.5-.5-.5z" fill="#afb1b3" fill-rule="nonzero"/></g></svg>

<?xml version="1.0" encoding="UTF-8"?>
<svg width="14px" height="14px" viewBox="0 0 14 14" version="1.1" xmlns="http://www.w3.org/2000/svg" xmlns:xlink="http://www.w3.org/1999/xlink">
    <title>dev_copy_forwarding</title>
    <g id="Icon" stroke="none" stroke-width="1" fill="none" fill-rule="evenodd">
        <g id="Visual-Studio-Code" transform="translate(-11.000000, -112.000000)">
            <g id="dev_copy_forwarding" transform="translate(11.000000, 112.000000)">
                <path d="M10.6958054,8.40570246 L13.993,11.5429342 L13.998,12.0029342 L12.606,13.3949342 L12.147,13.3909342 L8.91615165,9.99572263 C8.97046843,9.84054346 9,9.67372046 9,9.5 L9,9 L9.5,9 C9.98818027,9 10.4218917,8.76679118 10.6958054,8.40570246 Z M6.42575651,4.00547432 L6.261,4.1729342 C6.363,4.2789342 6.441,4.3549342 6.493,4.4049342 L6.493,4.4049342 L9.95784985,7.70124452 C9.88041134,7.87717003 9.70454991,8 9.5,8 L8,8 L8,9.035 L5.11,5.999 L6,6 L6,4.5 C6,4.24908545 6.18482362,4.04133876 6.42575651,4.00547432 Z M5.23,1.1769342 C5.955,0.452934197 7.365,0.405934197 8.09,1.1309342 L8.09,1.1309342 L9.291,2.3319342 L9.254,2.4719342 C8.639,2.3139342 7.817,2.6159342 7.337,3.0979342 L7.443,2.999 L6.5,3 L6.35553999,3.00686658 C5.59488808,3.07955132 5,3.72030388 5,4.5 L5,5 L4.5,5 C3.67157288,5 3,5.67157288 3,6.5 L3,8.414 L2.564,8.4149342 L-2.50466314e-13,5.8509342 L-2.50466314e-13,5.3869342 L0.739,4.6469342 L0.971,4.4149342 L1.482,4.9259342 L2.565,3.8429342 L2.802,3.6049342 C2.684,3.4889342 2.607,3.4109342 2.57,3.3729342 L2.57,3.3729342 L2.525,3.3259342 L2.53,2.8559342 L3.458,1.9279342 L3.928,1.9229342 L3.975,1.9679342 C4.02,2.0099342 4.098,2.0879342 4.208,2.1999342 L4.208,2.1999342 L4.445,1.9629342 Z" id="形状结合" fill="#59A869" fill-rule="nonzero"></path>
                <g id="编组-2" transform="translate(4.000000, 4.000000)">
                    <path d="M2.5,0 L5.5,0 C5.77614237,-5.07265313e-17 6,0.223857625 6,0.5 L6,3.5 C6,3.77614237 5.77614237,4 5.5,4 L2.5,4 C2.22385763,4 2,3.77614237 2,3.5 L2,0.5 C2,0.223857625 2.22385763,5.07265313e-17 2.5,0 Z" id="矩形备份-3" fill="#59A869"></path>
                    <rect id="矩形" fill="#92D7A0" x="0" y="2" width="4" height="4" rx="0.5"></rect>
                </g>
                <path d="M6.5,11 C7.32842712,11 8,11.6715729 8,12.5 C8,13.3284271 7.32842712,14 6.5,14 C5.8471533,14 5.29171807,13.5829319 5.08560151,13.000703 L2.91439849,13.000703 C2.70828193,13.5829319 2.1528467,14 1.5,14 C0.671572875,14 0,13.3284271 0,12.5 C0,11.6715729 0.671572875,11 1.5,11 C2.15321869,11 2.70891488,11.4175435 2.91475048,12.0002925 L5.08524952,12.0002925 C5.29108512,11.4175435 5.84678131,11 6.5,11 Z M1.5,12 C1.22385763,12 1,12.2238576 1,12.5 C1,12.7761424 1.22385763,13 1.5,13 C1.77614237,13 2,12.7761424 2,12.5 C2,12.2238576 1.77614237,12 1.5,12 Z M6.5,12 C6.22385763,12 6,12.2238576 6,12.5 C6,12.7761424 6.22385763,13 6.5,13 C6.77614237,13 7,12.7761424 7,12.5 C7,12.2238576 6.77614237,12 6.5,12 Z" id="形状结合" fill="#AFB1B3" fill-rule="nonzero"></path>
            </g>
        </g>
    </g>
</svg>
